!!!CDT: 1561/01/24-1640
!!!PTL: Il primo libro de madrigali a cinque voci
!!!PPP: Ferrara
!!!PPR: Baldini
!!!PDT: 1583
!!!PUB-format:
!!!RISM: C 4173
!!!rime: 47
!!!AGN: Madrigal
!!!SCT: Trm0047d
!!!SCA: Trm0047d
!!!original-voices: 5
!!!extant-voices: 2
!!!complete: N
!!!final: F
!!!COM: Cortellini, Camillo
!!!OTL: Non è questa la mano
**kern	**text	**kern	**text
*part2	*part2	*part1	*part1
*staff2	*staff2	*staff1	*staff1
*I"Tenore	*	*I"Quinto	*
*I'T	*	*I'V	*
*oclefC4	*	*oclefC1	*
*clefGv2	*	*clefG2	*
*k[b-]	*	*k[b-]	*
*omet(C)	*	*omet(C)	*
*M4/2	*	*M4/2	*
=1	=1	=1	=1
2A	Non	0r	.
4BnX	è	.	.
4.c	que-	.	.
8A	-sta	.	.
4B-i	la	.	.
2G	ma-	.	.
=2	=2	=2	=2
2A	-no,	2c	Non
2r	.	4d	è
.	.	4.e	que-
1r	.	.	.
.	.	8f	-sta
.	.	4d	la
.	.	2e	ma-
=3	=3	=3	=3
2F	Non	2f	-no
4G	è	2r	.
4.A	que-	.	.
.	.	1r	.
8B-y	-sta	.	.
4G	la	.	.
4G	ma-	.	.
4A	.	.	.
=4	=4	=4	=4
2B-y	.	2.f	Che
2F	-no	.	.
.	.	2b-y	tan-
1r	.	.	.
.	.	4g	-te e
.	.	4a	sì
.	.	4g	mor-
=5	=5	=5	=5
2r	.	4.f#X	-ta-
.	.	16eL	.
.	.	16f#iJ	.
2B-y	Che	8gL	.
.	.	8f#i	.
.	.	8g	.
.	.	8aJ	.
4B-y	tan-	2b-y	.
4B-y	-te e	.	.
4A	sì	2cc	.
4G	mor-	.	.
=6	=6	=6	=6
2A	-ta-	1dd	-li
2BnX	-li	.	.
4c	A-	4r	.
4.c	-ven-	4.g	A-
8c	-tò	8g	-ven-
4c	nel	4g	-tò
=7	=7	=7	=7
4A	mio	4a	nel
4B-i	cor	4f	mio
8FL	.	8aL	cor
8G	.	8b-y	.
8A	.	8cc	.
8B-yJ	.	16b-y	.
.	.	16aJ	.
4c	.	4g	.
4A	fia-	4cc	fia-
4B-y	-mel-	4b-y	-mel-
4d	-le e	4a	-le e
=8	=8	=8	=8
1c	stra-	4cc	stra-
.	.	8b-yL	.
.	.	8aJ	.
.	.	4.g	.
.	.	8a	.
1G	-li,	4bnX	.
.	.	2cc	.
.	.	4bnX	.
=9	=9	=9	=9
4r	.	1cc	-li?
4.G	A-	.	.
8G	-ven-	.	.
4G	-tò	.	.
4c	nel	1r	.
4F	mio	.	.
8AL	cor	.	.
8B-y	.	.	.
8c	.	.	.
16B-y	.	.	.
16AJ	.	.	.
=10	=10	=10	=10
4G	.	0r	.
4c	fia-	.	.
4B-y	-mel-	.	.
4A	-le e	.	.
4c	stra-	.	.
8B-yL	.	.	.
8AJ	.	.	.
2G	.	.	.
=11	=11	=11	=11
2A	-li?	2r	.
2r	.	2cc	Ec-
2F	Ec-	2a	-co,
2c	-co,	2r	.
=12	=12	=12	=12
2A	Ec-	4r	.
.	.	4.f	<Ec-
2G	-co	.	.
.	.	8eL	.
.	.	8e	.
.	.	16d	.
.	.	16eJ	.
1r	.	2f	.
.	.	4e	-co>
.	.	4g	che
=13	=13	=13	=13
1r	.	4a	pur
.	.	4cc	si
.	.	2bnX	tro-
4r	.	4cc	-va,
4C	che	4c	che
4F	pur	4.c	pur
4A	si	.	.
.	.	8c	si
=14	=14	=14	=14
2G	tro-	2d	tro-
2C	-va	4e	-va
.	.	4e	Fra
1r	.	4.a	le
.	.	8a	mie
.	.	[2g	man
=15	=15	=15	=15
1r	.	4g]	.
.	.	4a	ri-
.	.	2g	-stret-
2r	.	2a	-ta,
2F	Fra	2cc	Fra
=16	=16	=16	=16
4B-y	le	2dd	le
4G	mie	.	.
4.A	man	4cc	mie
.	.	2cc	man
8B-y	.	.	.
4c	.	.	.
4d	ri-	4a	ri-
2B-y	-stret-	2dd	-stret-
=17	=17	=17	=17
2F	-ta,	1cc	-ta,
2A	Né	.	.
4G	for-	1r	.
4A	-za od	.	.
4.B-y	ar-	.	.
8B-y	-te	.	.
=18	=18	=18	=18
4.A	per	0r	.
8A	fug-	.	.
4BnX	-gir	.	.
4c	le	.	.
4BnX	gio-	.	.
2c	.	.	.
4BnX	.	.	.
=19	=19	=19	=19
2c	-va,	2r	.
4r	.	2e	Né
4c	<Né	.	.
4BnX	for-	4d	for-
4c	-za od	4e	-za od
2F	ar-	2f	ar-
=20	=20	=20	=20
4c	-te	2e	-te
2A	per	.	.
.	.	4f#X	per
4G	fug-	4g	fug-
4d	-gir	4f#X	-gir
4e-X	le	4g	le
2d	gio-	2a	gio-
=21	=21	=21	=21
2G	-va,>	2bnX	-va,
4r	.	4r	.
4G	Né	4bni	Né
4c	tien	4cc	tien
4.B-y	fa-	4.dd	fa-
8B-y	-ce o	8dd	-ce o
4B-y	sa-	4b-i	sa-
=22	=22	=22	=22
2F	-et-	2a	-et-
4G	-ta,	4g	-ta,
4c	Né	4g	<Né
4B-y	tien	4g	tien
4.c	fa-	4.a	fa-
8c	-ce o	8a	-ce o
4c	sa-	4a	sa-
=23	=23	=23	=23
2d	-et-	2b-y	-et-
2c	-ta	2a	-ta>
1r	.	1r	.
=24	=24	=24	=24
4r	.	2r	.
8F	Che	.	.
8G	da	.	.
2.A	me	4r	.
.	.	8a	Che
.	.	8b-y	da
.	.	4cc	me
8A	la	8cc	la
8G	di-	8b-y	di-
2F#X	-fen-	2a	-fen-
=25	=25	=25	=25
4G	-da,	4b-y	-da,
8G	Che	8b-y	<Che
8A	da	8cc	da
2.B-y	me	2.dd	me
8FnXi	la	8cc	la
8G	di-	8b-y	di-
2D	-fen-	2a	-fen-
=26	=26	=26	=26
2G	-da.	2bnX	-da.>
4r	.	4r	.
2G	Giu-	2bnX	Giu-
4G	-sto è	4bnX	-sto è
2c	ben	2cc	ben
=27	=27	=27	=27
4B-y	ch'io	4dd	ch'io
4B-y	ne	4dd	ne
2F	pren-	2cc	pren-
2c	-da,	1cc	-da,
4r	.	.	.
8G	<Giu-	.	.
8A	-sto è	.	.
=28	=28	=28	=28
2B-y	ben	1r	.
4A	ch'io	.	.
4A	ne	.	.
2G	pren-	2r	.
2G	-da,	4r	.
.	.	4dd	A-
=29	=29	=29	=29
4r	.	2bnX	-mor,
4G	A-	.	.
2G	-mor,	4r	.
.	.	4dd	<A-
4r	.	4bnX	-mor,>
4.G	qual-	4.cc	qual-
8G	-che	8cc	-che
4A	ven-	4cc	ven-
=30	=30	=30	=30
2B-y	-det-	2dd	-det-
4A	-ta,	4cc	-ta,
4c	A-	4a	A-
2B-y	-mor,	2g	-mor,
4A	qual-	4f#X	qual-
8A	-che	8f#X	-che
8A	ven-	8f#X	ven-
=31	=31	=31	=31
4BnX	-det-	1g	-det-
2c	.	.	.
4BnX	.	.	.
4c	-ta,	2g	-ta,
4C	A-	.	.
2c	-mor,	2g	A-
=32	=32	=32	=32
4r	.	2e	-mor,
4C	A-	.	.
4c	-mor,	4r	.
4.G	qual-	4.g	qual-
8G	-che	8g	-che
4c	ven-	4g	ven-
8FL	-det-	2a	-det-
8G	.	.	.
8A	.	.	.
8B-XJ	.	.	.
=33	=33	=33	=33
4c	.	4g	-ta,
4C	.	4g	A-
8DL	.	4f	-mor,
8E	.	.	.
8F	.	4.f	qual-
8GJ	.	.	.
4A	.	.	.
.	.	8e	-che
4F	.	4f	ven-
2G	.	2d	-det-
=34	=34	=34	=34
2C	-ta,	2.e	.
1G	E	.	.
.	.	4d	.
.	.	1c	-ta,
[2A	se	.	.
=35	=35	=35	=35
2A]	.	0r	.
1G	pia-	.	.
[2F	-ghe	.	.
=36	=36	=36	=36
2F]	.	1r	.
2E	mi	.	.
2F	diè,	4c	ba-
.	.	8d	-ci
.	.	8e	le
4A	ba-	4f	ren-
8A	-ci	4f	-da,
8B-y	le	.	.
=37	=37	=37	=37
4.c	ren-	2r	.
8B-y	.	.	.
4.A	.	4a	ba-
.	.	8a	-ci
8G	.	8b-y	le
2F	.	4cc	ren-
.	.	4cc	-da,
2E	-da,	2r	.
=38	=38	=38	=38
4E	ba-	4g	ba-
8E	-ci	8a	-ci
8F	le	8b-y	le
2.G	ren-	4cc	ren-
.	.	8cL	.
.	.	8dJ	.
.	.	4e	.
4A	.	4f	.
2G	.	2g	.
=39	=39	=39	=39
0Fl	-da.	0al	-da.
==	==	==	==
*-	*-	*-	*-
!!!system-decoration: [*]
!!!RDF**kern: i = editorial accidental
!!!RDF**kern: l = terminal long
!!!ENC: Emiliano Ricciardi
!!!END: 2018
!!!EED: Ricciardi, Emiliano
!!!EEV: 2018/09/18
!!!YEC: Copyright 2018 Emiliano Ricciardi, All Rights Reserved
!!!ONB: Translated from MusicXML on 2018/09/18 and edited by Craig Stuart Sapp
!!@@BEGIN:	VERSEDATA
!!@SOLERTI:	47
!!@CATALOGNUM:	Trm0047
!!@LAST_MODIFIED: 2020/07/12
!!@TITLE:		Non è questa la mano
!!@GENRE:		madrigale/ballata
!!@MANUSRC:	Amz, Brn, C, E<sub>1</sub>, F<sub>2</sub>, I<sub>3</sub>, M<sub>7</sub>, P<sub>4</sub>, Tr<sub>2</sub>, V<sub>8</sub>, V<sub>13/E1</sub>
!!@PRINTSRC:	8, 9, 11, 12, 13, 15, 20, 24, 29, 33, 67, 145
!!@@BEGIN:	VERSES
!!@ABOUTIT:	Ballando con la sua donna desidera di fare amorosa vendetta de la sua mano ch’egli teneva stretta.
!!@ABOUTEN:	Dancing with his lady, he desires to take amorous revenge on the hand he held tight.
!!@EDITOR:	Solerti, Angelo
!!@EDITION_TITLE: Le Rime di Torquato Tasso
!!@EDITION_LOC:	Bologna
!!@EDITION_PUB:	Romagnoli-Dall’Acqua
!!@EDITION_DATE:  1898-1902
!!@EDITION_VOL:	2
!!@EDITION_PAGE:  71
!!@TRANSLATOR:	Emiliano Ricciardi and Amyrose McCue Gill
!!@VERSE:
!!	Non è questa la mano
!!	Che tante e sì mortali
!!	Avventò nel mio cor fiammelle e strali?
!!	Ecco che pur si trova
!!	Fra le mie man ristretta
!!	Né forza od arte per fuggir le giova,
!!	Né tien face o saetta
!!	Che da me la difenda.
!!	Giusto è ben ch'io ne prenda,
!!	Amor, qualche vendetta,
!!	E se piaghe mi diè baci le renda.
!!@TVERSE:
!!	Is this not the hand
!!	That so many and truly fatal
!!	Flames and arrows hurled at my heart?
!!	Yet here it is, to be found
!!	Held fast between my hands,
!!	Neither strength nor craft can help it escape,
!!	Nor does it hold a torch or a spear
!!	To defend her against me.
!!	It is just that I take,
!!	Love, some kind of revenge,
!!	And if she gave me wounds, may I give her kisses.
!!@@END:		VERSES
!!@OTHER_CRIT_ED:   Torquato Tasso, <i>Rime d’amore (secondo il codice
!!		Chigiano L VIII 302)</i>, eds. Franco Gavazzeni and
!!		Vercingetorige Martignone, vol. 4 of <i>Edizione
!!		Nazionale delle opere di Torquato Tasso</i>
!!		(Alessandria: Edizioni Dell’Orso, 2004), 34.
!!@ATTRIBUTION_ABOUT:	Secure
!!		<br>
!!		Among other authoritative sources (see Literary
!!		Sources), this poem appears in the autograph Chigiano
!!		L.VIII.302 (Biblioteca Vaticana, Rome), compiled
!!		around 1584&ndash;85.
!!@DATING:	Before 1579
!!		<br>
!!		Although Solerti dates this poem to the early 1560s,
!!		there is no hard evidence to support this dating.
!!		The earliest written testimony of “Non è questa la
!!		mano” is Benedetto Pallavicino’s musical setting,
!!		published in 1579 (Trm0047a).
!!@DEDICATEE:	Bendidio, Lucrezia
!!@DEDICATEE_INFO:
!!		In the autograph Chigiano L.VIII.302 (Biblioteca
!!		Vaticana, Rome), this poem appears among those
!!		addressed to Tasso’s <i>primo amore</i> (first love),
!!		identified as the Ferrarese singer and noblewoman
!!		<a target="_new" href="http://www.treccani.it/enciclopedia/lucrezia-bendidio_%28Dizionario-Biografico%29">Lucrezia Bendidio</a>
!!		(1547&ndash;after 1584). The poem itself, however, does not mention Lucrezia.
!!		As [Anthony Newcomb] {footnote: Anthony Newcomb, “The Ballata and the ‘Free’ Madrigal in
!!		the Second Half of the Sixteenth Century,” Journal
!!		of the American Musicological Society, vol. 63, no.
!!		3 (Fall 2010): 433&ndash;34.} has pointed out, this poem belongs to the
!!		hybrid genre of the ballata-madrigale.  More
!!		specifically, the opening tercet recalls the
!!		<i>ripresa</i> of a ballata, the central section
!!		the <i>piedi</i> (two pairs of <i>settenarii</i>
!!		separated by an <i>endecasillabo</i>), and the final
!!		tercet the <i>volta</i>. The poem is extremely rich
!!		of references to <i>topoi</i> that resonated with
!!		the culture of the time, such as courtly dance and
!!		the female hand–the latter is especially common in
!!		late sixteenth-century lyric poetry (see <i>Rime</i>
!!		315, 571, and 862). Counting 23 settings (see Musical
!!		Settings), “Non è questa la mano” is second only
!!		to “Ardi e gela a tua voglia” (<i>Rime</i> 418),
!!		whose musical fortune, however, is tied to that of
!!		Guarini’s <i>proposta</i> “Ardo sì, ma non t’amo.”
!!@@END:		VERSEDATA
!!@@BEGIN:	SETTING
!!@CATALOGNUM:	Trm0047d
!!@RIMETITLE:	Non è questa la mano
!!@SOLERTI:	47
!!@COMPOSER:	Cortellini, Camillo
!!@PRINCEPSTITLE:	Il primo libro de madrigali a cinque voci
!!@PRINCEPSLOC:	Ferrara
!!@NORMLOC:	Ferrara
!!@NORMPUB:	Baldini
!!@NORMPUBSHORT:	Baldini
!!@PRINCEPSPUB:	Baldini
!!@PRINCEPSYEAR:	1583
!!@PRINCEPSRISM:	C 4173
!!@REPRINTS:	
!!@OVOICES:	5
!!@EXTANTVOICES:	2
!!@PARTBOOKS:	
!!@EXTPARTBOOKS:	
!!@OCLEFS:	C1,C4
!!@OMENSURATION:	C
!!@OKEYSIG:	b-
!!@FINAL:	F
!!@TIMPEDITOR:	Ricciardi, Emiliano
!!@NOTE:		
!!@@END:		SETTING
